dist/svg/indicator-4.svg

<!-- Generated by Trend Micro Style Portal -->
<svg version="1.1" xmlns="http://www.w3.org/2000/svg" width="16" height="16" viewBox="0 0 16 16">
  <title>indicator-4</title>
  <path fill="rgb(34,34,34)" d="M8 11.4c-1.88 0-3.4-1.52-3.4-3.4s1.52-3.4 3.4-3.4c1.88 0 3.4 1.52 3.4 3.4s-1.52 3.4-3.4 3.4zM8 13c2.76 0 5-2.24 5-5s-2.24-5-5-5-5 2.24-5 5 2.24 5 5 5z"></path>
</svg>

<svg width="16" height="16" viewBox="0 0 16 16" fill="rgb(34, 34, 34)" xmlns="http://www.w3.org/2000/svg"><title>indicator-4</title><path d="M8 11.4C6.12 11.4 4.6 9.88 4.6 8C4.6 6.12 6.12 4.6 8 4.6C9.88 4.6 11.4 6.12 11.4 8C11.4 9.88 9.88 11.4 8 11.4ZM8 13C10.76 13 13 10.76 13 8C13 5.24 10.76 3 8 3C5.24 3 3 5.24 3 8C3 10.76 5.24 13 8 13Z" fill="rgb(34, 34, 34)" fill-opacity="1.00"/></svg>
